X:1
T:Title
%%score 1 2 3 4
L:1/8
M:3/2
K:C
V:1 treble nm="Choir Aahs"
V:2 bass nm="Choir Aahs"
V:3 treble nm="Choir Aahs"
V:4 bass nm="Choir Aahs"
V:1
 A4 | A3 c B4 A4 | ^G4 A4 B4 | c3 B A4 ^G4 | A8 A4 | ^G8 c4 | B8 A4 | ^G8 B4 | c4 A4 ^G4 | A8 B4 | %10
 c4 d4 c4 | B8 B4 | A8 B4 | c4 B4 A4 | A8 ^G4 | A12 |] %16
V:2
 E,4 | E,4 G,4 E,4 | E,8 E,4 | G,4 E,4 E,4 | E,8 E,4 | E,8 G,4 | G,8 E,4 | E,8 G,4 | G,4 E,4 E,4 | %9
 E,4 F,4 G,4 | C,2 D,2 E,2 F,2 G,2 F,2 | E,8 E,4 | E,4 F,4 G,3 A, | G,8 E,4 | F,8 E,4 | E,12 |] %16
V:3
 A,4 | C3 E D4 C4 | B,8 B,4 | E3 D C4[K:bass] B,4 | A,8 A,4 | B,8 E4 | D8 C4 | B,8 B,4 | %8
 E3 D C4[K:bass] B,4 | C3 B, A,4 ^G,4 | A,4 B,4 C4 | B,8 B,4 | E3 B, A,2 B,2[K:treble] C3 D | %13
 E4 D4 C4 | D4 C4 B,4 | A,12 |] %16
V:4
 A,4 | A,4 G,4 A,4 | E,8 E,4 | C,8 E,4 | A,,8 A,,4 | E,8 C,4 | G,8 A,4 | E,8 E,4 | C3 B, A,4 ^G,4 | %9
 A,3 G, F,4 E,4 | F,3 E, D,4 C,2 D,2 | E,8 E,4 | A,3 G, F,4 E,3 D, | C,4 G,4 A,4 | D,8 E,4 | %15
 A,,12 |] %16

